pages/travel-inside/img/svg/instagram.svg

<svg width="25" height="25" viewBox="0 0 25 25" fill="none" xmlns="http://www.w3.org/2000/svg">
<path d="M14.8926 12.5C14.8926 13.8214 13.8214 14.8926 12.5 14.8926C11.1786 14.8926 10.1074 13.8214 10.1074 12.5C10.1074 11.1786 11.1786 10.1074 12.5 10.1074C13.8214 10.1074 14.8926 11.1786 14.8926 12.5Z" fill="black"/>
<path d="M18.0954 8.26691C17.9804 7.95525 17.7969 7.67316 17.5585 7.4416C17.327 7.20319 17.0451 7.0197 16.7332 6.90469C16.4803 6.80646 16.1003 6.68954 15.4005 6.65768C14.6435 6.62316 14.4165 6.61572 12.5 6.61572C10.5833 6.61572 10.3564 6.62297 9.59953 6.65749C8.89972 6.68954 8.51958 6.80646 8.26686 6.90469C7.95501 7.0197 7.67291 7.20319 7.44155 7.4416C7.20313 7.67316 7.01965 7.95506 6.90444 8.26691C6.80621 8.51983 6.68929 8.89996 6.65744 9.59977C6.62292 10.3566 6.61548 10.5836 6.61548 12.5003C6.61548 14.4168 6.62292 14.6438 6.65744 15.4008C6.68929 16.1006 6.80621 16.4805 6.90444 16.7334C7.01965 17.0453 7.20294 17.3272 7.44136 17.5588C7.67291 17.7972 7.95482 17.9807 8.26667 18.0957C8.51958 18.1941 8.89972 18.311 9.59953 18.3429C10.3564 18.3774 10.5831 18.3846 12.4998 18.3846C14.4167 18.3846 14.6437 18.3774 15.4003 18.3429C16.1002 18.311 16.4803 18.1941 16.7332 18.0957C17.3592 17.8542 17.854 17.3594 18.0954 16.7334C18.1937 16.4805 18.3106 16.1006 18.3426 15.4008C18.3771 14.6438 18.3844 14.4168 18.3844 12.5003C18.3844 10.5836 18.3771 10.3566 18.3426 9.59977C18.3108 8.89996 18.1938 8.51983 18.0954 8.26691ZM12.5 16.1858C10.4643 16.1858 8.81408 14.5358 8.81408 12.5001C8.81408 10.4644 10.4643 8.81432 12.5 8.81432C14.5356 8.81432 16.1858 10.4644 16.1858 12.5001C16.1858 14.5358 14.5356 16.1858 12.5 16.1858ZM16.3315 9.52996C15.8558 9.52996 15.4702 9.14429 15.4702 8.6686C15.4702 8.19291 15.8558 7.80724 16.3315 7.80724C16.8072 7.80724 17.1929 8.19291 17.1929 8.6686C17.1927 9.14429 16.8072 9.52996 16.3315 9.52996Z" fill="black"/>
<path d="M12.5 0C5.5975 0 0 5.5975 0 12.5C0 19.4025 5.5975 25 12.5 25C19.4025 25 25 19.4025 25 12.5C25 5.5975 19.4025 0 12.5 0ZM19.6344 15.4593C19.5997 16.2233 19.4782 16.745 19.3008 17.2016C18.928 18.1658 18.1658 18.928 17.2016 19.3008C16.7452 19.4782 16.2233 19.5995 15.4594 19.6344C14.694 19.6693 14.4495 19.6777 12.5002 19.6777C10.5507 19.6777 10.3064 19.6693 9.54075 19.6344C8.77686 19.5995 8.255 19.4782 7.79858 19.3008C7.31945 19.1206 6.88572 18.8381 6.52714 18.4729C6.16207 18.1145 5.87959 17.6805 5.69935 17.2016C5.52197 16.7452 5.40047 16.2233 5.36575 15.4594C5.33047 14.6938 5.32227 14.4493 5.32227 12.5C5.32227 10.5507 5.33047 10.3062 5.36556 9.54075C5.40028 8.77666 5.52158 8.255 5.69897 7.79839C5.87921 7.31945 6.16188 6.88553 6.52714 6.52714C6.88553 6.16188 7.31945 5.8794 7.79839 5.69916C8.255 5.52177 8.77666 5.40047 9.54075 5.36556C10.3062 5.33066 10.5507 5.32227 12.5 5.32227C14.4493 5.32227 14.6938 5.33066 15.4593 5.36575C16.2233 5.40047 16.745 5.52177 17.2016 5.69897C17.6805 5.87921 18.1145 6.16188 18.4731 6.52714C18.8381 6.88572 19.1208 7.31945 19.3008 7.79839C19.4784 8.255 19.5997 8.77666 19.6346 9.54075C19.6695 10.3062 19.6777 10.5507 19.6777 12.5C19.6777 14.4493 19.6695 14.6938 19.6344 15.4593Z" fill="black"/>
</svg>

<svg xmlns="http://www.w3.org/2000/svg" width="25" height="25" fill="#000"><path d="M14.9 12.5a2.4 2.4 0 11-4.8 0 2.4 2.4 0 014.8 0z"/><path d="M18.1 8.27c-.12-.31-.3-.6-.54-.83a2.22 2.22 0 00-.83-.54c-.25-.1-.63-.21-1.33-.24-.76-.04-.98-.04-2.9-.04s-2.14 0-2.9.04c-.7.03-1.08.15-1.33.24-.31.12-.6.3-.83.54-.24.23-.42.52-.54.83-.1.25-.21.63-.24 1.33-.04.76-.04.98-.04 2.9s0 2.14.04 2.9c.03.7.15 1.08.24 1.33.12.32.3.6.54.83.23.24.51.42.83.54.25.1.63.21 1.33.24.76.04.98.04 2.9.04s2.14 0 2.9-.04c.7-.03 1.08-.15 1.33-.24a2.38 2.38 0 001.37-1.37c.1-.25.21-.63.24-1.33.04-.76.04-.98.04-2.9s0-2.14-.04-2.9a3.97 3.97 0 00-.24-1.33zm-5.6 7.92a3.69 3.69 0 110-7.38 3.69 3.69 0 010 7.38zm3.83-6.66a.86.86 0 110-1.72.86.86 0 010 1.72z"/><path d="M12.5 0a12.5 12.5 0 100 25 12.5 12.5 0 000-25zm7.13 15.46a5.27 5.27 0 01-.33 1.74 3.67 3.67 0 01-2.1 2.1c-.45.18-.98.3-1.74.33-.77.04-1.01.05-2.96.05s-2.2-.01-2.96-.05a5.27 5.27 0 01-1.74-.33 3.52 3.52 0 01-1.27-.83c-.37-.36-.65-.79-.83-1.27-.18-.45-.3-.98-.33-1.74-.04-.77-.05-1.01-.05-2.96s.01-2.2.05-2.96c.03-.76.15-1.28.33-1.74.18-.48.46-.91.83-1.27.36-.37.79-.65 1.27-.83.46-.18.98-.3 1.74-.33a50.9 50.9 0 012.96-.05c1.95 0 2.2.01 2.96.05.76.03 1.29.15 1.74.33.48.18.91.46 1.27.83.37.36.65.79.83 1.27.18.46.3.98.33 1.74.04.77.05 1.01.05 2.96s-.01 2.2-.05 2.96z"/></svg>
